X: 2
T: Connaughtman's Rambles, The
M: 6/8
L: 1/8
S: RJ handout from Michael Pavan 2020-7-14
K: D
"^A"[|] A |\
"D"FAA dAA | "G"BAB "D"dAG | FAA dfe | "Bm"dBB B2A |\
"D"FAA dAA | "G"BAB "D"def | "G"gfe "D"f2 e | "Bm"dBB B2 :|
K: Bm
"^B"|: g |\
"Bm"fbb faa | "D"fef d2 e | "Bm"fbb faa | fed "A"ede |\
"Bm"fbb faa | "D"fef def | "G"gfe "D"d2 e | "Bm"dBB B2 :|


